svg/red-kite.svg

<svg xmlns="http://www.w3.org/2000/svg" viewBox="0 0 100 100">
  <path d="M63 4h-7v4h-6v5h-3v3h-3v4h-2v4h-3v9h3v3h2v8H34v4h4v2h3v5h-4v4h-5v21h2v6h3v4h2v5h8v-5h-1V78h2v-9h2v-4h5v-6h7v-5h7v2h6v2h4v3h6v-4h-3v-3h-2v-3h8v-4h-9v2H67v-2h-3v-8h-2v-8h-3v-9h3v-5h2v-4h3V8h-4V4Z"/>
  <path fill="currentColor" d="M62 17H46v4h5v4h-2v3h10v-6h3v-5ZM48 65h-8v7h-6v4h6v2h3v3h3v-3h2V65Z"/>
</svg>

<svg width="100" height="100" viewBox="0 0 100 100" fill="none" xmlns="http://www.w3.org/2000/svg">
<path d="M63 4H56V8H50V13H47V16H44V20H42V24H39V33H42V36H44V44H34V48H38V50H41V55H37V59H32V80H34V86H37V90H39V95H47V90H46V78H48V69H50V65H55V59H62V54H69V56H75V58H79V61H85V57H82V54H80V51H88V47H79V49H67V47H64V39H62V31H59V22H62V17H64V13H67V8H63V4Z" fill="black"/>
<path d="M62 17H46V21H51V25H49V28H59V22H62V17Z" fill="#C06041"/>
<path d="M48 65H40V72H34V76H40V78H43V81H46V78H48V65Z" fill="#C06041"/>
</svg>
